X:9
T:Office of Ordnance. JJo8.009, The
B:J.Johnson Choice Collection Vol 8 1758
Z:vmp.Simon Wilson 2013 www.village-music-project.org.uk
M:C|
L:1/8
Q:1/2=80
K:A
E|AA cB/A/B2Bd|cecA GBGE|AA cB/A/B2Bd|cdcBA3:|
|:B|ee gf/e/f2fa|gbge ^dfdB|ee gf/e/f2fa|gagfe3f|
edcBc2Ac|dcBA GBGE|AA cB/A/B2Bd|cdcBA3:|
